assets/img/icons/duotone-icons/Home/Library.svg

<?xml version="1.0" encoding="UTF-8"?>
<svg width="24px" height="24px" viewBox="0 0 24 24" version="1.1" xmlns="http://www.w3.org/2000/svg" xmlns:xlink="http://www.w3.org/1999/xlink">
    <!-- Generator: Sketch 52.2 (67145) - http://www.bohemiancoding.com/sketch -->
    <title>Stockholm-icons / Home / Library</title>
    <desc>Created with Sketch.</desc>
    <g id="Stockholm-icons-/-Home-/-Library" stroke="none" stroke-width="1" fill="none" fill-rule="evenodd">
        <rect id="bound" x="0" y="0" width="24" height="24"></rect>
        <path d="M5,3 L6,3 C6.55228475,3 7,3.44771525 7,4 L7,20 C7,20.5522847 6.55228475,21 6,21 L5,21 C4.44771525,21 4,20.5522847 4,20 L4,4 C4,3.44771525 4.44771525,3 5,3 Z M10,3 L11,3 C11.5522847,3 12,3.44771525 12,4 L12,20 C12,20.5522847 11.5522847,21 11,21 L10,21 C9.44771525,21 9,20.5522847 9,20 L9,4 C9,3.44771525 9.44771525,3 10,3 Z" id="Combined-Shape" fill="#335EEA"></path>
        <rect id="Rectangle-Copy-2" fill="#335EEA" opacity="0.3" transform="translate(17.825568, 11.945519) rotate(-19.000000) translate(-17.825568, -11.945519) " x="16.3255682" y="2.94551858" width="3" height="18" rx="1"></rect>
    </g>
</svg>

<svg width="24" height="24" viewBox="0 0 24 24" xmlns="http://www.w3.org/2000/svg"><g fill="none" fill-rule="evenodd"><path d="M0 0h24v24H0z"/><path d="M5 3h1a1 1 0 011 1v16a1 1 0 01-1 1H5a1 1 0 01-1-1V4a1 1 0 011-1zm5 0h1a1 1 0 011 1v16a1 1 0 01-1 1h-1a1 1 0 01-1-1V4a1 1 0 011-1z" fill="#335EEA"/><rect fill="#335EEA" opacity=".3" transform="rotate(-19 17.826 11.946)" x="16.326" y="2.946" width="3" height="18" rx="1"/></g></svg>
